svg/regular/bx-screenshot.svg

<svg xmlns="http://www.w3.org/2000/svg" width="24" height="24"><path d="M19 14h-2v3h-3v2h3v3h2v-3h3v-2h-3zM4 19h3v-2H5v-2H3v3a1 1 0 0 0 1 1zM19 4a1 1 0 0 0-1-1h-3v2h2v2h2V4zM5 5h2V3H4a1 1 0 0 0-1 1v3h2V5zM3 9h2v4H3zm14 0h2v3h-2zM9 3h4v2H9zm0 14h3v2H9z"/></svg>

<svg xmlns="http://www.w3.org/2000/svg" width="24" height="24" viewBox="0 0 24 24"><path d="M19 14L17 14 17 17 14 17 14 19 17 19 17 22 19 22 19 19 22 19 22 17 19 17zM4 19h3v-2H5v-2H3v3C3 18.553 3.447 19 4 19zM19 4c0-.553-.447-1-1-1h-3v2h2v2h2V4zM5 5h2V3H4C3.447 3 3 3.447 3 4v3h2V5zM3 9H5V13H3zM17 9H19V12H17zM9 3H13V5H9zM9 17H12V19H9z"/></svg>
